X: 1
T:Patrick Kelly's Jig
M:6/8
L:1/8
S:Tony Crehan, Miltown Malbay 1993
R:Jig
D:as Anthony Frawley's on Wind Among the Reeds by Keane & McCarthy
K:G
A|:GED GBA|GED G2 A|GED GAB|dBA B2 A|
GED GBA|def g2 a|bag (3efga|dBA B2 A:|
d2 d edB|def gfe|d2 d edB|dBG ABc|
dBd edB|def g2 a|bag ege|dBA B2 A|
dBd edB|def gfe|d2 d edB|dBG ABc|
d2 d edB|def g2 a|bag (3efge|dBA B2||
